app/img/star-about.svg

<svg width="32" height="32" viewBox="0 0 32 32" fill="none" xmlns="http://www.w3.org/2000/svg">
<path d="M16.0971 3.55298C9.25258 3.55298 3.68408 9.12148 3.68408 15.966C3.68408 22.811 9.25258 28.38 16.0971 28.38C22.9416 28.38 28.5101 22.811 28.5101 15.966C28.5106 9.12148 22.9421 3.55298 16.0971 3.55298ZM22.9556 15.0585V15.059L19.3621 17.659L20.7461 21.889C20.7681 21.955 20.7796 22.0255 20.7796 22.0975C20.7796 22.467 20.4806 22.767 20.1111 22.767C19.9641 22.767 19.8291 22.72 19.7191 22.6405L16.0976 20.021L12.4761 22.6405C12.3661 22.72 12.2311 22.767 12.0846 22.767C11.7146 22.767 11.4151 22.4675 11.4151 22.0975C11.4151 22.025 11.4271 21.955 11.4491 21.889L12.8336 17.659L9.24008 15.059V15.0585C9.07208 14.9375 8.96308 14.74 8.96308 14.517C8.96308 14.1475 9.26208 13.8485 9.63208 13.8485H14.0806L15.4581 9.63798C15.5421 9.36448 15.7966 9.16548 16.0981 9.16548C16.3991 9.16548 16.6541 9.36448 16.7376 9.63798L18.1151 13.8485H22.5636C22.9331 13.8485 23.2326 14.1475 23.2326 14.517C23.2321 14.74 23.1231 14.9375 22.9556 15.0585Z" fill="#F0145A"/>
</svg>

<svg xmlns="http://www.w3.org/2000/svg" width="32" height="32" fill="none"><path fill="#F0145A" d="M16.097 3.553c-6.844 0-12.413 5.568-12.413 12.413 0 6.845 5.569 12.414 12.413 12.414 6.845 0 12.413-5.569 12.413-12.414S22.942 3.553 16.097 3.553Zm6.859 11.506-3.594 2.6 1.384 4.23a.669.669 0 0 1-1.027.752l-3.621-2.62-3.622 2.62a.67.67 0 0 1-1.027-.752l1.385-4.23-3.594-2.6a.668.668 0 0 1 .392-1.21h4.449l1.377-4.211a.67.67 0 0 1 1.28 0l1.377 4.21h4.449a.669.669 0 0 1 .392 1.21Z"/></svg>
